src/actions/22/reverse.svg

<svg xmlns="http://www.w3.org/2000/svg" viewBox="0 0 22 22">
  <defs id="defs3051">
    <style type="text/css" id="current-color-scheme">
      .ColorScheme-Text {
        color:#363636;
      }
      </style>
  </defs>
 <path 
    style="fill:currentColor;fill-opacity:1;stroke:none" 
    d="M 14.5 3 L 14.28125 3.2148438 L 11 6.4453125 L 11.71875 7.1542969 L 14 4.9082031 L 14 13.060547 L 14 17 L 15 17 L 15 13.060547 L 15 4.9082031 L 17.28125 7.1542969 L 18 6.4453125 L 14.71875 3.2148438 L 14.5 3 z M 7 5 L 7 8.9394531 L 7 17.091797 L 4.71875 14.845703 L 4 15.554688 L 7.28125 18.785156 L 7.5 19 L 7.71875 18.785156 L 11 15.554688 L 10.28125 14.845703 L 8 17.091797 L 8 8.9394531 L 8 5 L 7 5 z "
    class="ColorScheme-Text"
    />  
</svg>

<svg xmlns="http://www.w3.org/2000/svg" viewBox="0 0 22 22">
    <path d="m14.5 3-.219.215L11 6.445l.719.71L14 4.907V17h1V4.908l2.281 2.246.719-.709-3.281-3.23L14.5 3zM7 5V17.092l-2.281-2.246-.719.709 3.281 3.23L7.5 19l.219-.215L11 15.555l-.719-.71L8 17.093V5H7z" style="fill:currentColor;fill-opacity:1;stroke:none;color:#050505;opacity:.7"/>
</svg>
